tools/download-figma-icons/icons/outlined-large/smartphone-with-touch.svg

<svg width="64" height="64" viewBox="0 0 64 64" fill="none" xmlns="http://www.w3.org/2000/svg">
<path fill-rule="evenodd" clip-rule="evenodd" d="M41.5929 49.6529C40.2409 49.4069 38.8429 48.8819 37.4269 48.0879L24.207 40.8129C24.175 40.7959 24.142 40.7789 24.108 40.7629C23.468 40.4699 23.186 39.7089 23.476 39.0739C23.605 38.7969 23.806 38.5879 24.075 38.4549C24.256 38.3649 24.449 38.3209 24.643 38.3209C24.822 38.3209 25.001 38.3589 25.168 38.4359L29.5619 40.4719C30.1389 40.7409 30.8229 40.6129 31.2669 40.1579C31.7109 39.7019 31.8189 39.0149 31.5369 38.4449L23.893 23.007C23.562 22.339 23.76 21.527 24.335 21.198C24.743 20.966 25.136 21.016 25.381 21.096C25.706 21.207 25.968 21.434 26.1189 21.74L31.6439 32.8979C31.6449 32.8999 31.6459 32.9019 31.6469 32.9029V32.9039C32.0149 33.6459 32.9149 33.9489 33.6559 33.5829C34.3989 33.2149 34.7029 32.3149 34.3349 31.5729V31.5719L34.3329 31.5679C34.0239 30.9369 34.2829 30.1709 34.9139 29.8589C35.3029 29.6649 35.6599 29.7159 35.8889 29.7949C36.2139 29.9049 36.4759 30.1319 36.6269 30.4369V30.4379C36.9949 31.1799 37.8959 31.4859 38.6369 31.1159C39.3799 30.7489 39.6829 29.8489 39.3159 29.1069C39.3159 29.1059 39.3149 29.1059 39.3149 29.1049C39.0029 28.4729 39.2619 27.7059 39.8929 27.3929C40.2849 27.1999 40.6409 27.2509 40.8689 27.3289C41.1949 27.4389 41.4559 27.6669 41.6069 27.9709C41.9749 28.7159 42.8749 29.0169 43.6159 28.6509C44.3589 28.2839 44.6629 27.3839 44.2959 26.6409L44.2949 26.6379C43.9839 26.007 44.2429 25.24 44.8739 24.927C45.2649 24.735 45.6209 24.786 45.8499 24.863C46.1759 24.973 46.4369 25.201 46.5909 25.513C48.3889 29.0959 51.3229 34.9789 51.5429 35.5009C52.0269 36.7369 54.2149 43.1239 49.7249 47.4719C47.5839 49.5459 44.9239 50.2579 41.5929 49.6529ZM37.4999 60.9999H14.5C12.57 60.9999 11 59.4299 11 57.4999V6.49999C11 4.56999 12.57 2.99999 14.5 2.99999H15.85V3.49999C15.85 5.14999 17.19 6.49999 18.85 6.49999H32.8499C34.4999 6.49999 35.8499 5.14999 35.8499 3.49999V2.99999H37.4999C39.4299 2.99999 40.9999 4.56999 40.9999 6.49999V24.309C40.1689 24.201 39.3279 24.326 38.5619 24.705C37.6129 25.174 36.9149 25.952 36.5289 26.8579C35.5379 26.6049 34.5049 26.7139 33.5819 27.1709C33.1829 27.3679 32.8289 27.6199 32.5229 27.9129L28.8079 20.409C28.3019 19.386 27.4259 18.622 26.3279 18.25C25.144 17.861 23.908 17.985 22.844 18.594C20.885 19.716 20.165 22.24 21.205 24.34L26.9579 35.9589L26.4269 35.7129C25.249 35.1689 23.906 35.1889 22.743 35.7669C21.859 36.2049 21.172 36.9119 20.75 37.8209C19.78 39.9489 20.702 42.4669 22.804 43.4659L35.9689 50.7099C37.6459 51.6509 39.3379 52.2819 40.9999 52.5909V57.4999C40.9999 59.4299 39.4299 60.9999 37.4999 60.9999ZM54.3389 34.4149C54.1189 33.8429 50.7229 27.0579 49.2769 24.175C48.7709 23.153 47.8949 22.388 46.8109 22.021H46.8099C45.8819 21.708 44.9059 21.739 43.9999 22.066V6.49999C43.9999 2.90999 41.0799 0 37.4999 0H14.5C10.91 0 7.99998 2.90999 7.99998 6.49999V57.4999C7.99998 61.0799 10.91 63.9999 14.5 63.9999H37.4999C41.0799 63.9999 43.9999 61.0799 43.9999 57.4999V52.8509C47.0209 52.8009 49.6419 51.7279 51.8119 49.6269C57.6669 43.9559 54.9419 35.9539 54.3389 34.4149Z" fill="black"/>
</svg>

<svg xmlns="http://www.w3.org/2000/svg" width="64" height="64" fill="none" viewBox="0 0 64 64"><path fill="currentColor" fill-rule="evenodd" d="M41.593 49.653c-1.352-.246-2.75-.771-4.166-1.565l-13.22-7.275-.099-.05a1.28 1.28 0 0 1 .535-2.442c.179 0 .358.038.525.115l4.394 2.036a1.5 1.5 0 0 0 1.975-2.027l-7.644-15.438c-.331-.668-.133-1.48.442-1.809a1.283 1.283 0 0 1 1.784.542l5.525 11.158.003.005a1.5 1.5 0 1 0 2.688-1.331l-.002-.004a1.28 1.28 0 0 1 .58-1.71 1.25 1.25 0 0 1 .976-.063c.325.11.587.337.738.642a1.5 1.5 0 1 0 2.689-1.331l-.001-.001a1.28 1.28 0 0 1 .578-1.712c.392-.193.748-.142.976-.064.326.11.587.338.738.642a1.5 1.5 0 1 0 2.689-1.33l-.001-.003a1.28 1.28 0 0 1 .579-1.711c.39-.192.747-.141.976-.064.326.11.587.338.74.65 1.799 3.583 4.733 9.466 4.953 9.988.484 1.236 2.672 7.623-1.818 11.97-2.141 2.075-4.801 2.787-8.132 2.182M37.5 61h-23c-1.93 0-3.5-1.57-3.5-3.5v-51C11 4.57 12.57 3 14.5 3h1.35v.5c0 1.65 1.34 3 3 3h14c1.65 0 3-1.35 3-3V3h1.65C39.43 3 41 4.57 41 6.5v17.809a4.23 4.23 0 0 0-4.471 2.549 4.24 4.24 0 0 0-2.947.313 4.3 4.3 0 0 0-1.06.742l-3.714-7.504a4.26 4.26 0 0 0-2.48-2.159 4.25 4.25 0 0 0-3.484.344c-1.959 1.122-2.679 3.646-1.639 5.746l5.753 11.619-.531-.246a4.24 4.24 0 0 0-3.684.054 4.26 4.26 0 0 0-1.993 2.054 4.29 4.29 0 0 0 2.054 5.645l13.165 7.244c1.677.94 3.369 1.572 5.03 1.88v4.91c0 1.93-1.57 3.5-3.5 3.5m16.839-26.585c-.22-.572-3.616-7.357-5.062-10.24a4.26 4.26 0 0 0-2.466-2.154h-.001a4.23 4.23 0 0 0-2.81.045V6.5A6.505 6.505 0 0 0 37.5 0h-23A6.5 6.5 0 0 0 8 6.5v51c0 3.58 2.91 6.5 6.5 6.5h23c3.58 0 6.5-2.92 6.5-6.5v-4.65c3.02-.05 5.642-1.122 7.812-3.223 5.855-5.671 3.13-13.673 2.527-15.212" clip-rule="evenodd"/></svg>
